X: 22
T:
M: 3/4
L: 1/8
R: waltz
K: Gmaj
G2 d4 | F2 d4 | E2 d4 | D2 d4 |
C2 G4 | B,2 G4 | A,2 G2 FE | F3 G A2 |
B3 A GF | G4 D2 | E3 F G2 | D4 D2 |
E3 F G2 | D3 F G2 | B3 B AG | B2 A2 Bc ||
d3 c Bc | d3 c Bc | d2 d3 e | c3 B AB |
c2 c2 c2 | c2 d3 A | B4 cB | A4 Bc |
d3 c BA | c3 B AG | B3 A GF | G4 D2 |
E3 F G2 | D3 F G2 | B3 A GF | G6 |]
